X:1
T:Clyde's Water
M:4/4
L:1/4
K:C
 G| c3/2 d/2 c e| G3/2- A/2G/2 G/2 e| e c d c| A/2- c3/2 z|c/2-A/2|\
 G3/2 E/2 G e| d c A c| G3/2 E/2 G3/2 A/2| c2 z|c/2-A/2| G3/2 E/2 G e|\
 d c A c| G3/2 E/2 G3/2 A/2| c2 z||
